Adwaita++/actions/symbolic/edit-redo-symbolic.svg

<svg height="16" width="16" xmlns="http://www.w3.org/2000/svg">
  <g fill="#474747">
    <path d="m5.5 6a3.515 3.515 0 0 0 -3.5 3.5c0 1.921 1.58 3.5 3.5 3.5h.5v-2h-.5c-.84 0-1.5-.66-1.5-1.5s.66-1.5 1.5-1.5h6.5v-2z"/>
    <path d="m9 3v1c0 .257.13.528.313.719l2.28 2.281-2.28 2.281c-.183.19-.313.462-.313.719v1h1c.31 0 .552-.09.75-.281l3.656-3.719-3.656-3.719c-.198-.19-.44-.281-.75-.281z"/>
  </g>
</svg>

<svg xmlns="http://www.w3.org/2000/svg" width="16" height="16">
    <path d="M5.5 6A3.515 3.515 0 0 0 2 9.5C2 11.421 3.58 13 5.5 13H6v-2h-.5C4.66 11 4 10.34 4 9.5S4.66 8 5.5 8H12V6z" style="line-height:normal;font-variant-ligatures:normal;font-variant-position:normal;font-variant-caps:normal;font-variant-numeric:normal;font-variant-alternates:normal;font-feature-settings:normal;text-indent:0;text-align:start;text-decoration-line:none;text-decoration-style:solid;text-decoration-color:#000;text-transform:none;text-orientation:mixed;shape-padding:0;isolation:auto;mix-blend-mode:normal;marker:none" color="#000" font-weight="400" font-family="sans-serif" white-space="normal" overflow="visible" fill="#474747"/>
    <path d="M9 3v1c0 .257.13.528.313.719L11.593 7l-2.28 2.281C9.13 9.471 9 9.743 9 10v1h1c.31 0 .552-.09.75-.281L14.406 7 10.75 3.281C10.552 3.091 10.31 3 10 3z" style="line-height:normal;-inkscape-font-specification:'Bitstream Vera Sans';text-indent:0;text-align:start;text-decoration-line:none;text-transform:none;marker:none" color="#bebebe" font-weight="400" font-family="Bitstream Vera Sans" overflow="visible" fill="#474747"/>
</svg>
